svg/US/TX.svg

<svg width="90" height="65" viewBox="0 0 90 65" xmlns="http://www.w3.org/2000/svg"><title>Texas</title><g fill="none" fill-rule="evenodd"><path d="M32 65H10C4.477 65 0 60.523 0 55V10C0 4.477 4.477 0 10 0h22v65z" fill="#00247D"/><path d="M90 33H32V0h48c5.523 0 10 4.477 10 10v23z" fill="#F1F2F2"/><path d="M80 65H32V33h58v22c0 5.523-4.477 10-10 10" fill="#CF1B2B"/><path fill="#F1F2F2" d="M16.064 18.602L19.118 28H29l-7.995 5.809 3.054 9.398-7.995-5.808-7.995 5.808 3.054-9.398-7.995-5.81h9.882z"/></g></svg>

<?xml version="1.0" encoding="UTF-8" standalone="no"?>
<svg width="90px" height="65px" viewBox="0 0 90 65" version="1.1" xmlns="http://www.w3.org/2000/svg" xmlns:xlink="http://www.w3.org/1999/xlink">
    <!-- Generator: Sketch 3.7.2 (28276) - http://www.bohemiancoding.com/sketch -->
    <title>Texas</title>
    <desc>Created with Sketch.</desc>
    <defs></defs>
    <g id="Page-1" stroke="none" stroke-width="1" fill="none" fill-rule="evenodd">
        <g id="Texas">
            <g id="Page-1">
                <path d="M32,65 L10,65 C4.477,65 0,60.523 0,55 L0,10 C0,4.477 4.477,0 10,0 L32,0 L32,65 Z" id="Fill-1" fill="#00247D"></path>
                <path d="M90,33 L32,33 L32,0 L80,0 C85.523,0 90,4.477 90,10 L90,33 Z" id="Fill-3" fill="#F1F2F2"></path>
                <path d="M80,65 L32,65 L32,33 L90,33 L90,55 C90,60.523 85.523,65 80,65" id="Fill-5" fill="#CF1B2B"></path>
                <polygon id="Fill-7" fill="#F1F2F2" points="16.0642 18.6016 19.1182 27.9996 29.0002 27.9996 21.0052 33.8086 24.0592 43.2066 16.0642 37.3986 8.0692 43.2066 11.1232 33.8086 3.1282 27.9996 13.0102 27.9996"></polygon>
            </g>
        </g>
    </g>
</svg>
